!!!COM:	Josquin des Prez
!!!CDT:	~1450-1521/08/27
!!!OPR:	Missa Fortuna desperata
!!!ONM:	2
!!!OTL:	Gloria
!!!AGN:	Mass; Gloria
!!!SCT:	NJE 8.2
!!!SCA:	New Josquin Edition 8.2
!!!voices: 4
!!!voices-OPR:	4
**kern	**kern	**kern	**kern
*staff4	*staff3	*staff2	*staff1
*Ivox	*Ivox	*Ivox	*Ivox
*I"Bassus	*I"Tenor	*I"Altus	*I"Superius
*I'B	*I'T	*I'A	*I'S
*>[A,B]	*>[A,B]	*>[A,B]	*>[A,B]
*>Gloria[A]	*>Gloria[A]	*>Gloria[A]	*>Gloria[A]
*>QuiTollis[B]	*>QuiTollis[B]	*>QuiTollis[B]	*>QuiTollis[B]
*>A	*>A	*>A	*>A
*clefF4	*clefGv2	*clefGv2	*clefG2
*k[]	*k[]	*k[]	*k[]
*M3/1	*M3/1	*M3/1	*M3/1
*met(O)	*met(O)	*met(O)	*met(O)
!!section: Et in terra pax
!!!OMD: Et in terra pax
=1-	=1-	=1-	=1-
0.r	0.r	0F	1f
.	.	.	2d/
.	.	.	2c/
.	.	2F/	2.f/
.	.	2G/	.
.	.	.	4e/
=2	=2	=2	=2
0.r	0.r	1A	1c
.	.	0G	1r
.	.	.	1g
=3	=3	=3	=3
0F	0.r	2F/	1.a
.	.	2f\	.
.	.	2d\	.
.	.	2c\	2a/
2D\	.	2.f\	1a
2C/	.	.	.
.	.	4e\	.
=4	=4	=4	=4
2.F\	0.r	2.c\	1a
4E\	.	4d\	.
0C	.	2e\	0g
.	.	2f\	.
.	.	2g\	.
.	.	2e\	.
=5	=5	=5	=5
1F	0.r	2f\	0a
.	.	2c\	.
2D\	.	2d\	.
2C/	.	2e\	.
2.F\	.	4A/	1a
.	.	4B\	.
.	.	4c\	.
4E\	.	4d\	.
=6	=6	=6	=6
2C/	0.r	2e\	2g/
2F\	.	2c\	2a/
2D\	.	2d\	2f/
2C/	.	2e\	2g/
2.F\	.	2f\	1a
.	.	2d\	.
4E\	.	.	.
=7	=7	=7	=7
2C/	0.r	2e\	2g/
2.F\	.	2c\	2a/
.	.	2d\	2b\
4E\	.	.	.
2C/	.	2e\	1cc
2.F\	.	2A/	.
.	.	[2c\	2a/
4E\	.	.	.
=8	=8	=8	=8
1C	0.r	4c\]	2g/
.	.	4B\	.
.	.	4A/	2.a/
.	.	4G/	.
1D	.	1F	.
.	.	.	4g/
.	.	.	1f
1C	.	1G	.
.	.	.	2e/
=9	=9	=9	=9
0.r	0.F	1F	1f
.	.	1f	2d/
.	.	.	2c/
.	.	2d\	2.f/
.	.	2c\	.
.	.	.	4e/
=10	=10	=10	=10
0.r	1F	2.f\	4d/
.	.	.	4c/
.	.	.	2.f/
.	.	4e\	.
.	0G	4d\	.
.	.	4c\	4e/
.	.	1c	2e/
.	.	.	1d
.	.	2B\	.
=11	=11	=11	=11
1F	0.A	1c	2r
.	.	.	2c/
2D\	.	1r	2d/
2C/	.	.	2e/
2.F\	.	1r	2.c/
4E\	.	.	4d/
=12	=12	=12	=12
2.C/	0.G	0.r	2e/
.	.	.	2f/
4D\	.	.	.
2E\	.	.	2g/
1F	.	.	2a/
.	.	.	1b-i
2E\	.	.	.
=13	=13	=13	=13
2F\	0.F	2r	2a/
1A	.	1c	1cc
2A\	.	2c\	2cc\
2A\	.	2c\	2.cc\
2A\	.	2c\	.
.	.	.	4a/
=14	=14	=14	=14
2G\	1r	2d\	2b\
2.A\	.	2c\	1cc
.	0c	2A/	.
4G\	.	.	.
4F\	.	2.c\	2a/
8E\L	.	.	.
8D\J	.	.	.
1E	.	.	1g
.	.	4B\	.
.	.	2G/	.
=15	=15	=15	=15
1D	0.d	2A/	1f
.	.	2.B-i\	.
1G	.	.	1b-i
.	.	4G/	.
.	.	1g	.
1D	.	.	1a
.	.	2f#i\	.
=16	=16	=16	=16
2r	1B-	2g\	2r
1E-	.	1G	1g
.	0c	.	.
2E-i\	.	2G/	2g/
2E-i\	.	2G/	2g/
2E-i\	.	2G/	2g/
=17	=17	=17	=17
1D	0.d	2A/	2f/
.	.	2F/	2.a/
1G	.	1B-i	.
.	.	.	4g/
.	.	.	1g
1D	.	1A	.
.	.	.	2f#i/
=18	=18	=18	=18
2r	1B-i	2r	1g
1E-i	.	1G	.
.	0B-i	.	2r
2E-i\	.	2G/	2g/
2E-i\	.	2G/	2g/
2E-i\	.	2G/	2g/
=19	=19	=19	=19
2.C/	1c	2A/	2e/
.	.	2G/	2.g/
4D\	.	.	.
4E\	1B	4g\	.
4F\	.	4f\	4a/
2G\	.	4e\	2b\
.	.	4d\	.
2A\	1A	2c\	2cc\
[2F\	.	2d\	[2a/
=20	=20	=20	=20
4F\]	1F	2.A/	4a/]
4E\	.	.	4g/
2D\	.	.	2f/
.	.	4B\	.
2C/	0G	2c\	2e/
2BB/	.	2d\	1f
1C	.	1c	.
.	.	.	2e/
=21	=21	=21	=21
1c	[0.F	0A	0.f
2c\	.	.	.
2c\	.	.	.
2d\	.	1r	.
2c\	.	.	.
=22	=22	=22	=22
2A\	0.F_	1c	0.r
2.F\	.	.	.
.	.	2c\	.
4G\	.	.	.
2A\	.	2c\	.
2D\	.	2d\	.
2A\	.	2c\	.
=23	=23	=23	=23
2r	0.F]	2A/	1cc
1A	.	1c	.
.	.	.	2cc\
2F\	.	4B-i\	2cc\
.	.	4A/	.
2BB-/	.	2B-i\	2dd\
2F\	.	2A/	2cc\
=24	=24	=24	=24
2r	0.r	1F	2a/
1.F	.	.	1cc
.	.	2r	.
.	.	2c\	4b-i\
.	.	.	4a/
2BB-i/	.	2.d\	2b-i\
[2F\	.	.	2a/
.	.	4c\	.
=25	=25	=25	=25
4F\]	0.r	2d\	1f
4E\	.	.	.
2D\	.	2f\	.
2C/	.	2e\	2r
2F\	.	2.f\	2cc\
2BB-i/	.	.	2dd\
.	.	4g\	.
2F\	.	2a\	2cc\
=26	=26	=26	=26
2r	0.r	2f\	2dd\
2.F\	.	1a	2.cc\
4E\	.	.	8dd\L
.	.	.	8ee\J
2D\	.	2f\	1ff
1C	.	1g	.
.	.	.	2ee\
=27	=27	=27	=27
0D	0.f	1f	1.ff
.	.	1F	.
.	.	.	2ee\
1BB-i	.	1B-i	1dd
=28	=28	=28	=28
1F	1f	2A/	2cc\
.	.	2F/	2a/
2.G\	0d	1B-i	2.b-i\
4F\	.	.	4a/
1D	.	2A/	1f
.	.	2F/	.
=29	=29	=29	=29
1C	0e	0.c	2r
.	.	.	1cc
1r	.	.	.
.	.	.	2dd\
1C	1g	.	1ee
=30	=30	=30	=30
2D\	2f\	1r	2a/
2C/	2e\	.	2ee\
1D	0d	2r	2ff\
.	.	2f\	2.dd\
1BB-i	.	2d\	.
.	.	.	4cc\
.	.	2f\	4b-i\
.	.	.	4a/
=31	=31	=31	=31
1C	1e	4e\	2g/
.	.	4d\	.
.	.	4c\	2cc\
.	.	4B\	.
0D	0f	2A/	2f/
.	.	2.F/	1ff
.	.	4G/	.
.	.	4A/	4ee\
.	.	4B\	4dd\
=32	=32	=32	=32
1C	0.g	1c	2ee\
.	.	.	2cc\
1r	.	2B\	2dd\
.	.	2.c\	2.ee\
1C	.	.	.
.	.	4d\	4dd\
.	.	2e\	4cc\
.	.	.	4b\
=33	=33	=33	=33
2.D\	1f	2.f\	1a
4C/	.	4e\	.
2D\	1f	4d\	1r
.	.	4c\	.
2BB-i/	.	2d\	.
2C/	2e\	2c\	1r
2D\	2d\	2f\	.
=34	=34	=34	=34
1C	0.e	2e\	0.r
.	.	1c	.
1r	.	.	.
.	.	4B\	.
.	.	4A/	.
1C	.	2G/	.
.	.	[2A/	.
=35	=35	=35	=35
0D	0.f	2A/]	1.ff
.	.	2F/	.
.	.	1F	.
.	.	.	2ee\
1BB-i	.	1f	1dd
=36	=36	=36	=36
1C	1r	1e	1cc
0D	1f	2.d\	2b-i\
.	.	.	1a
.	.	4c\	.
.	1f	1A	.
.	.	.	4g/
.	.	.	4f/
=37	=37	=37	=37
2C/	2e\	2r	2g/
2F\	1d	2A/	2a/
2G\	.	2G/	2b\
2A\	2c\	1.c	2.cc\
1F	1A	.	.
.	.	.	4b\
.	.	.	2a/
=38	=38	=38	=38
0.BB-i	0.B-i	2.d\	2g/
.	.	.	2.f/
.	.	4e\	.
.	.	[0f	.
.	.	.	4e/
.	.	.	4d/
.	.	.	4c/
.	.	.	1d
=39	=39	=39	=39
2.F\	0.A	0.f]	2c/
.	.	.	2cc\
4E\	.	.	.
2D\	.	.	2dd\
2C/	.	.	2ee\
1D	.	.	1ff
=40	=40	=40	=40
2C/	0.c	2g\	2ee\
2.F\	.	2.a\	2ff\
.	.	.	2.cc\
4G\	.	4g\	.
4A\	.	2f\	.
4B\	.	.	4dd\
2c\	.	2e\	2ee\
[2F\	.	[2f\	[2a/
=41	=41	=41	=41
2F\]	0.d	4f\]	2a/]
.	.	4e\	.
1G	.	4d\	1b-i
.	.	4c\	.
.	.	2B-\	.
2F\	.	2f\	1a
2.B-\	.	2.d\	.
.	.	.	2g/
4A\	.	4e\	.
=42	=42	=42	=42
1F	0.c	2f\	1a
.	.	2.c\	.
2.C/	.	.	2g/
.	.	4d\	.
.	.	4e\	2.cc\
4D\	.	4f\	.
2E\	.	2g\	.
.	.	.	4b\
2F\	.	[2c\	2a/
=43	=43	=43	=43
2r	0e	4c\]	4g/
.	.	4d\	4f/
2.C/	.	4e\	4e/
.	.	4f\	4d/
.	.	2g\	1c
4D\	.	.	.
2E\	.	1c	.
2F\	1r	.	1d
2G\	.	2B\	.
=44	=44	=44	=44
2r	1e	2.c\	2c/
2C/	.	.	2g/
.	.	4B\	.
2.D\	1f	4A/	2f/
.	.	4G/	.
.	.	2F/	1a
4E\	.	.	.
2F\	1d	2A/	.
2G\	.	2G/	2b\
=45	=45	=45	=45
2r	0c	2A/	2.cc\
2.C/	.	2G/	.
.	.	.	4b\
.	.	2r	2a/
4D\	.	.	.
2E\	.	2G/	2g/
2F\	1d	2A/	4f/
.	.	.	4e/
2G\	.	2B\	2d/
=46	=46	=46	=46
2.C/	1.e	2G/	4c/
.	.	.	4d/
.	.	2.c\	4e/
4D\	.	.	4f/
2E\	.	.	2g/
.	.	4B\	.
1F	2d\	4A/	2a/
.	.	4G/	.
.	2c\	2A/	2r
2G\	2B\	[2G/	2d/
=47	=47	=47	=47
2.C/	0.c	2G/]	4e/
.	.	.	4d/
.	.	1c	4e/
4D\	.	.	4f/
2E\	.	.	2g/
2F\	.	2A/	1f
1C	.	1G	.
.	.	.	2e/
=48	=48	=48	=48
0.r	0.d	0.r	2.f/
.	.	.	4g/
.	.	.	2a/
.	.	.	2b-\
.	.	.	2a/
.	.	.	2b-i\
=49	=49	=49	=49
0.r	1d	0.r	2a/
.	.	.	2.b-i\
.	0B-i	.	.
.	.	.	4a/
.	.	.	1a
.	.	.	2g/
=50	=50	=50	=50
1.F	0.A	0c	1.a
2E\	.	.	2g/
2D\	.	[1d	2f/
2C/	.	.	2e/
=51	=51	=51	=51
2BB-i/	0.B-i	2d\]	1d
2AA/	.	2c\	.
1GG	.	2B-i\	1.dd
.	.	2A/	.
[1G	.	1G	.
.	.	.	2cc\
=52	=52	=52	=52
2G\]	0.G	1.g	2b-i\
2F\	.	.	2a/
2E\	.	.	1.g
2D\	.	2f\	.
2C/	.	2e\	.
2BB-i/	.	2d\	4a/
.	.	.	4b-i\
=53	=53	=53	=53
2AA/	0.A	1.c	2.cc\
1F	.	.	.
.	.	.	4b-i\
.	.	.	2a/
2E\	.	4d\	2g/
.	.	4e\	.
2D\	.	[1f	2f/
2C/	.	.	2e/
=54	=54	=54	=54
1BB-	1B-i	2f\]	1d
.	.	2e\	.
1F	1A	2d\	2r
.	.	2c\	2a/
1G	[1d	1B-i	2g/
.	.	.	[2b-i\
=55	=55	=55	=55
1F	2d\]	1f	2b-\]
.	2c\	.	1a
2G\	1B-i	2d\	.
2E-\	.	2e-i\	2g/
2F\	1A	2c\	2a/
2D\	.	2d\	2f/
=56	=56	=56	=56
4E-i\	0.G	2B-i\	4g/
4D\	.	.	4f/
4C/	.	1c	4e/
4BB-i/	.	.	4d/
2C/	.	.	2e/
2D\	.	2Bni\	1f
1C	.	[1c	.
.	.	.	2e/
=57	=57	=57	=57
0.F	0.F	0.c]	0.f
!!LO:LB:i:g=z
=58||	=58||	=58||	=58||
*>B	*>B	*>B	*>B
*M2/1	*M2/1	*M2/1	*M2/1
*met(C|)	*met(C|)	*met(C|)	*met(C|)
!!secton: Qui Tollis
!!!OMD: Qui Tollis
1c	0r	0r	0r
2d\	.	.	.
[2c\	.	.	.
=59	=59	=59	=59
2c\]	0r	0r	0r
4B-i\	.	.	.
4A\	.	.	.
2d\	.	.	.
2c\	.	.	.
=60	=60	=60	=60
1A	0r	1c	0r
1r	.	2d\	.
.	.	[2c\	.
=61	=61	=61	=61
1A	0r	2c\]	0r
.	.	4B-i\	.
.	.	4A/	.
2B-i\	.	2d\	.
[2A\	.	2c\	.
=62	=62	=62	=62
2A\]	0r	1A	1cc
4G\	.	.	.
4F\	.	.	.
2B-\	.	1r	2dd\
2A\	.	.	[2cc\
=63	=63	=63	=63
1F	0r	1A	2cc\]
.	.	.	4b-i\
.	.	.	4a/
1r	.	2B-i\	2dd\
.	.	[2A/	2cc\
=64	=64	=64	=64
1F	0r	2A/]	1a
.	.	4G/	.
.	.	4F/	.
2BB-/	.	2B-i\	1r
[2F\	.	2A/	.
=65	=65	=65	=65
1F]	0r	2F/	1a
.	.	2c\	.
2BB-i/	.	2d\	2b-i\
[2F\	.	[2c\	[2a/
=66	=66	=66	=66
1F]	0F	2c\]	2a/]
.	.	4B-i\	4g/
.	.	4A/	4f/
2BB-i/	.	2d\	2b-i\
[2F\	.	2c\	[2a/
=67	=67	=67	=67
2F\]	1F	2A/	2a/]
2D\	.	2B\	4g/
.	.	.	4f/
1C	1G	[1c	1e
=68	=68	=68	=68
0r	0A	2c\]	0r
.	.	4B\	.
.	.	4A/	.
.	.	4c\	.
.	.	4d\	.
.	.	4e\	.
.	.	4f\	.
=69	=69	=69	=69
0r	0G	2g\	0r
.	.	1f	.
.	.	2e\	.
=70	=70	=70	=70
1r	0F	1f	1r
1F	.	1A	[1f
=71	=71	=71	=71
1F	1r	1A	1f]
1F	1c	1A	1f
=72	=72	=72	=72
0BB-i	0d	0B-i	1f
.	.	.	1f
=73	=73	=73	=73
0E-	1B-i	0G	1.g
.	1c	.	.
.	.	.	2f/
=74	=74	=74	=74
0D	[0d	0A	0f
=75	=75	=75	=75
1r	1d]	0r	1r
1G	1B-i	.	1g
=76	=76	=76	=76
1G	0B-i	0r	1g
1G	.	.	1g
=77	=77	=77	=77
1C	1c	0r	1g
1G	1B-i	.	1g
=78	=78	=78	=78
2.F\	1A	0r	1c
4E\	.	.	.
1D	1F	.	1d
=79	=79	=79	=79
0C	0G	0r	0e
=80	=80	=80	=80
1r	[0F	1r	1r
[1c	.	[1f	[1a
=81	=81	=81	=81
2c\]	0F_	2f\]	2a/]
2c\	.	2f\	2a/
1c	.	1f	1a
=82	=82	=82	=82
2c\	0F]	2f\	2a/
2c\	.	2f\	2a/
2c\	.	2f\	2a/
2c\	.	2f\	2a/
=83	=83	=83	=83
2.d\	0r	2.f\	2.b-i\
4c\	.	4e\	4a/
4B-i\	.	4d\	4g/
4A\	.	4c\	4f/
[2B-i\	.	[2d\	[2g/
=84	=84	=84	=84
4B-\]	0r	4d\]	4g/]
4A\	.	4c\	4f/
4G\	.	1c	1f
4F\	.	.	.
1G	.	.	.
.	.	2B-i\	2e/
=85	=85	=85	=85
0F	0r	2d\	2.f/
.	.	1c	.
.	.	.	4g/
.	.	.	4a/
.	.	.	4b\
.	.	4B-i\	2cc\
.	.	4A/	.
=86	=86	=86	=86
1r	0f	2B-i\	2dd\
.	.	2A/	2.cc\
2r	.	1F	.
.	.	.	4b\
[2F\	.	.	4a/
.	.	.	4g/
=87	=87	=87	=87
2F\]	1f	0r	4a/
.	.	.	4g/
4E\	.	.	1a
4D\	.	.	.
2F\	1d	.	.
2G\	.	.	4g/
.	.	.	4f/
=88	=88	=88	=88
0C	0e	2r	1g
.	.	1c	.
.	.	.	1c
.	.	4B\	.
.	.	4A/	.
=89	=89	=89	=89
0r	1g	2B\	2r
.	.	2c\	2g/
.	2f\	1F	2a/
.	2e\	.	2cc\
=90	=90	=90	=90
2r	0d	0r	2b\
2G\	.	.	2g/
2F\	.	.	2a/
[2G\	.	.	[2b\
=91	=91	=91	=91
2G\]	1e	1r	2b\]
4F\	.	.	4a/
4E\	.	.	4g/
1D	1f	1d	2a/
.	.	.	[2b\
=92	=92	=92	=92
1r	[0g	1e	2b\]
.	.	.	2cc\
1G	.	1d	2dd\
.	.	.	[2b\
=93	=93	=93	=93
1E	1g]	1e	2b\]
.	.	.	2g/
1F	1f	1c	1a
=94	=94	=94	=94
0BB-	1f	0d	0b-
.	2e\	.	.
.	2d\	.	.
=95	=95	=95	=95
0C	0e	1c	0g
.	.	1c	.
=96	=96	=96	=96
1r	0f	1d	1r
[1F	.	1c	[1a
=97	=97	=97	=97
2F\]	1r	1A	2a/]
2F\	.	.	2a/
1F	1f	[1c	1a
=98	=98	=98	=98
1F	1f	2c\]	1a
.	.	4B-i\	.
.	.	4A/	.
1G	2e\	2.B-i\	2g/
.	[2d\	.	[2b-i\
.	.	4A/	.
=99	=99	=99	=99
0D	2d\]	0F	2b-\]
.	2c\	.	2a/
.	1A	.	[1a
=100	=100	=100	=100
0r	0B-i	1r	1a]
.	.	1d	1g
=101	=101	=101	=101
1r	0A	1e	0a
1F	.	[1f	.
=102	=102	=102	=102
1F	0c	1f]	1r
1F	.	1f	[1a
=103	=103	=103	=103
1D	0d	1f	2a/]
.	.	.	2a/
1D	.	[1F	1a
=104	=104	=104	=104
1F	0c	2F/]	1a
.	.	2G/	.
1F	.	2A/	1a
.	.	2B\	.
=105	=105	=105	=105
0C	0e	[0c	2g/
.	.	.	2a/
.	.	.	2g/
.	.	.	[2a/
=106	=106	=106	=106
1r	1r	0c]	2a/]
.	.	.	4g/
.	.	.	4f/
1C	1e	.	1g
=107	=107	=107	=107
1D	1f	1F	0r
1BB-i	1d	1B-i	.
=108	=108	=108	=108
1.F	0c	1A	1r
.	.	1F	1a
2E\	.	.	.
=109	=109	=109	=109
1D	1d	0r	1b
1C	[1e	.	[1cc
=110	=110	=110	=110
0r	2e\]	0r	2cc\]
.	2d\	.	2b\
.	2c\	.	2a/
.	2B\	.	[2g/
=111	=111	=111	=111
0r	0c	0r	4g/]
.	.	.	4f/
.	.	.	4e/
.	.	.	4d/
.	.	.	1e
=112	=112	=112	=112
1r	0d	1r	1d
[1BB-i	.	[1f	[1dd
=113	=113	=113	=113
1BB-]	1d	1f]	1dd]
1BB-i	1B-i	1f	1dd
=114	=114	=114	=114
1F	0A	1.f	1.cc
1F	.	.	.
.	.	2e\	4b\
.	.	.	4a/
=115	=115	=115	=115
1G	0B-i	1d	1g
1D	.	1d	1f
=116	=116	=116	=116
0E	0G	1B	1g
.	.	1c	1g
=117	=117	=117	=117
0D	0A	0d	0f
=118	=118	=118	=118
1r	1B-i	1d	1g
1D	1A	[1f	[1a
=119	=119	=119	=119
0D	1.d	2f\]	2a/]
.	.	4e\	4g/
.	.	4d\	4f/
.	.	1f	2b-i\
.	2c\	.	[2a/
=120	=120	=120	=120
1E	1B	1e	2a/]
.	.	.	2g/
1F	1A	[1c	2a/
.	.	.	[2f/
=121	=121	=121	=121
0C	0G	0c]	2f/]
.	.	.	4e/
.	.	.	4d/
.	.	.	1e
=122	=122	=122	=122
1.c	[0F	1.A	0f
4B-i\	.	4G/	.
4A\	.	4F/	.
=123	=123	=123	=123
2d\	0F]	1F	0r
2c\	.	.	.
[1A	.	[1c	.
=124	=124	=124	=124
*	*M4/2	*	*
*	*met(C|2)	*	*
*	*rscale:2	*	*
2A\]	1r	2c\]	0r
4G\	.	4B-i\	.
4F\	.	4A/	.
2A\	1r	2c\	.
[2G\	.	[2B-i\	.
=125	=125	=125	=125
4G\]	1r	2B-\]	0r
4F\	.	.	.
1F	.	2A/	.
.	1r	1G	.
2E\	.	.	.
=126	=126	=126	=126
0F	1r	1F	1.cc
.	1r	[1f	.
.	.	.	4b-i\
.	.	.	4a/
=127	=127	=127	=127
0r	1r	2f\]	2dd\
.	.	2e\	2cc\
.	1r	2f\	[1a
.	.	[2c\	.
=128	=128	=128	=128
2r	1F	1c]	2a/]
1F	.	.	4g/
.	.	.	4f/
.	2F	2d\	2a/
2E\	2G	2e\	[2g/
=129	=129	=129	=129
1F	1A	2c\	2g/]
.	.	2d\	1f
1C	1G	4e\	.
.	.	4d\	.
.	.	4c\	2e/
.	.	4B\	.
=130	=130	=130	=130
2r	1F	1A	2f/
2.A\	.	.	2.cc\
.	2r	1F	.
4G\	.	.	4b\
4F\	2c	.	[2a/
4E\	.	.	.
=131	=131	=131	=131
1D	1d	1A	2a/]
.	.	.	4g/
.	.	.	4f/
1E	2B-i	2G/	2.g/
.	2c	2g\	.
.	.	.	4a/
=132	=132	=132	=132
1D	1.d	2.f\	2b-i\
.	.	.	2.a/
.	.	4e\	.
2r	.	2f\	.
.	.	.	4g/
[2G\	2B-i	[2d\	[2b-i\
=133	=133	=133	=133
4G\]	1B-i	1d]	4b-\]
4F\	.	.	4a/
4E\	.	.	4g/
4D\	.	.	4f/
1C	2c	2e\	1e
.	2B-i	[2g\	.
=134	=134	=134	=134
1D	2A	4g\]	1r
.	.	4f\	.
.	2F	1f	.
1C	1G	.	1g
.	.	2e\	.
=135	=135	=135	=135
2.c\	[1F	0f	1.a
4B\	.	.	.
4A\	1F_	.	.
4G\	.	.	.
2A\	.	.	2a/
=136	=136	=136	=136
2F\	1F]	2r	1a
2A\	.	2c\	.
1G	1r	2d\	1b-i
.	.	2e\	.
=137	=137	=137	=137
2r	1r	2.f\	2.a/
2.F\	.	.	.
.	.	4e\	4g/
.	1r	2c\	2a/
4E\	.	.	.
4D\	.	2d\	[2f/
4C/	.	.	.
=138	=138	=138	=138
2D\	1f	2A/	2f/]
2BB-i/	.	2.B-i\	4e/
.	.	.	4d/
1D	2f	.	1f
.	.	4A/	.
.	2d	2F/	.
=139	=139	=139	=139
2r	1e	1.c	1g
1C	.	.	.
.	2g	.	1r
2D\	4f\	2A/	.
.	4e\	.	.
=140	=140	=140	=140
2BB-i/	1d	2B-i\	0r
2D\	.	2A/	.
1C	2e	1c	.
.	2f	.	.
=141	=141	=141	=141
2r	1.g	2B-i\	0r
1C	.	1c	.
2D\	2f	2A/	.
=142	=142	=142	=142
2BB-i/	2f	4B-i\	0r
.	.	4A/	.
2D\	4e\	4G/	.
.	4d\	4F/	.
1C	1e	1G	.
=143	=143	=143	=143
0r	1f	0F	2r
.	.	.	2f/
.	2r	.	2.f/
.	2f	.	.
.	.	.	4g/
=144	=144	=144	=144
0r	2f	0r	2a/
.	4e\	.	2.b-i\
.	2d	.	.
.	4c\	.	4a/
.	2A	.	[2a/
=145	=145	=145	=145
0r	1B-i	0r	2a/]
.	.	.	2g/
.	1A	.	2.a/
.	.	.	4g/
=146	=146	=146	=146
1A	1c	1r	4a/
.	.	.	4b\
.	.	.	1cc
1G	1d	1g	.
.	.	.	2b\
=147	=147	=147	=147
1A	1c	2e\	1cc
.	.	2f\	.
2G\	1e	2g\	2r
2A\	.	2c\	2cc\
=148	=148	=148	=148
2G\	2r	2d\	2b\
2A\	2e	1c	1cc
2F\	2f	.	.
2G\	2d	2g\	2b\
=149	=149	=149	=149
1A	1c	2e\	2cc\
.	.	2f\	2a/
1G	2d	1g	1b
.	[2e	.	.
=150	=150	=150	=150
1A	4e\]	1e	2r
.	4d\	.	.
.	4c\	.	2cc\
.	4B\	.	.
2F\	1c	1f	2a/
2A\	.	.	2cc\
=151	=151	=151	=151
1G	1d	1g	1b
2r	2d	2f\	2a/
2G\	2B-i	2g\	[2dd\
=152	=152	=152	=152
2A\	1A	2e\	4dd\]
.	.	.	4cc\
2F\	.	2f\	1cc
1G	1B-i	1d	.
.	.	.	2b\
=153	=153	=153	=153
1C	1G	1.c	1.cc
1F	1A	.	.
.	.	2d\	4b\
.	.	.	4a/
=154	=154	=154	=154
2E\	2B-i	2e\	2g/
2F\	2A	2c\	2a/
2BB-/	2.d	1f	2.b-i\
2D\	.	.	.
.	4c\	.	4a/
=155	=155	=155	=155
2E\	2B-i	2e\	4g/
.	.	.	4f/
2F\	2A	2.c\	1f
1C	1G	.	.
.	.	4B\	.
.	.	2c\	2e/
=156	=156	=156	=156
[0Fl	[1Fl	2A/	[0fl
.	.	2d\	.
.	1F_	2c\	.
.	.	[2f\	.
=157	=157	=157	=157
0F_	1F_	4f\]	0f_
.	.	4e\	.
.	.	2c\	.
.	1F_	1d	.
=158	=158	=158	=158
0F]	1F_	0cl	0f]
.	1F]	.	.
*	*rscale:1	*	*
==	==	==	==
*-	*-	*-	*-
!!!RDF**kern: l=long note in original notation
!!!RDF**kern: i=editorial accidental
!!!ENC: Jesse Rodin; Victoria Chang 2011/04/13
!!!END: 2011/04/13/
!!!EED:	Jesse Rodin
!!!EEV:	2011/05/03/
!!attribution-level@Jos: 1 (secure)
!!!ONB:	Translated from MusicXML and edited on 2011/05/03/ by Craig Sapp
!!muse2ps: T^@{OPR}^u^@{ONM}{. }@{OTL}^C^@{COM}\n@{SCT}^i2I100v85,90,85,150c95Q16
